svg/fluentui-system-icons/ic_fluent_image_arrow_forward_24_regular.svg

<svg width="24" height="24" viewBox="0 0 24 24" fill="none" xmlns="http://www.w3.org/2000/svg">
<path d="M12 6.5C12 9.53757 9.53757 12 6.5 12C3.46243 12 1 9.53757 1 6.5C1 3.46243 3.46243 1 6.5 1C9.53757 1 12 3.46243 12 6.5ZM5.35355 4.35355C5.54882 4.15829 5.54882 3.84171 5.35355 3.64645C5.15829 3.45118 4.84171 3.45118 4.64645 3.64645L3.14645 5.14645C2.95118 5.34171 2.95118 5.65829 3.14645 5.85355L4.64645 7.35355C4.84171 7.54882 5.15829 7.54882 5.35355 7.35355C5.54882 7.15829 5.54882 6.84171 5.35355 6.64645L4.70711 6H6.75C7.99264 6 9 7.00736 9 8.25V8.5C9 8.77614 9.22386 9 9.5 9C9.77614 9 10 8.77614 10 8.5V8.25C10 6.45507 8.54493 5 6.75 5H4.70711L5.35355 4.35355ZM3 11.9782C3.46321 12.2747 3.96653 12.5142 4.5 12.6865V17.75C4.5 17.9584 4.53643 18.1583 4.60326 18.3437L10.4258 12.643C11.2589 11.8273 12.5675 11.7885 13.4458 12.5266L13.5742 12.6431L19.3964 18.3447C19.4634 18.159 19.5 17.9588 19.5 17.75V6.25C19.5 5.2835 18.7165 4.5 17.75 4.5H12.6865C12.5142 3.96653 12.2747 3.46321 11.9782 3H17.75C19.5449 3 21 4.45507 21 6.25V17.75C21 19.5449 19.5449 21 17.75 21H6.25C4.45507 21 3 19.5449 3 17.75V11.9782ZM18.3305 19.4014L12.5247 13.7148C12.2596 13.4553 11.8501 13.4316 11.5588 13.644L11.4752 13.7148L5.66845 19.4011C5.8504 19.4651 6.04613 19.5 6.25 19.5H17.75C17.9535 19.5 18.1489 19.4653 18.3305 19.4014ZM15.2521 6.5C16.4959 6.5 17.5042 7.50831 17.5042 8.75212C17.5042 9.99592 16.4959 11.0042 15.2521 11.0042C14.0083 11.0042 13 9.99592 13 8.75212C13 7.50831 14.0083 6.5 15.2521 6.5ZM15.2521 8C14.8367 8 14.5 8.33673 14.5 8.75212C14.5 9.1675 14.8367 9.50423 15.2521 9.50423C15.6675 9.50423 16.0042 9.1675 16.0042 8.75212C16.0042 8.33673 15.6675 8 15.2521 8Z" fill="#212121"/>
</svg>

<svg xmlns="http://www.w3.org/2000/svg" width="24" height="24"><path d="M12 6.5a5.5 5.5 0 1 1-11 0 5.5 5.5 0 0 1 11 0ZM5.354 4.354a.5.5 0 1 0-.708-.708l-1.5 1.5a.5.5 0 0 0 0 .708l1.5 1.5a.5.5 0 1 0 .708-.708L4.707 6H6.75A2.25 2.25 0 0 1 9 8.25v.25a.5.5 0 0 0 1 0v-.25A3.25 3.25 0 0 0 6.75 5H4.707l.647-.646ZM3 11.978c.463.297.967.536 1.5.709v5.063c0 .208.036.408.103.594l5.823-5.701a2.25 2.25 0 0 1 3.02-.116l.128.116 5.822 5.702c.067-.186.104-.386.104-.595V6.25a1.75 1.75 0 0 0-1.75-1.75h-5.063a6.472 6.472 0 0 0-.709-1.5h5.772A3.25 3.25 0 0 1 21 6.25v11.5A3.25 3.25 0 0 1 17.75 21H6.25A3.25 3.25 0 0 1 3 17.75v-5.772Zm15.33 7.423-5.805-5.686a.75.75 0 0 0-.966-.071l-.084.07-5.807 5.687c.182.064.378.099.582.099h11.5c.203 0 .399-.035.58-.099ZM15.253 6.5a2.252 2.252 0 1 1 0 4.504 2.252 2.252 0 0 1 0-4.504Zm0 1.5a.752.752 0 1 0 0 1.504.752.752 0 0 0 0-1.504Z"/></svg>
